src/epub/images/titlepage.svg

<?xml version="1.0" encoding="utf-8"?>
<svg xmlns="http://www.w3.org/2000/svg" xmlns:svg="http://www.w3.org/2000/svg" version="1.1" viewBox="0 0 1400 340">
	<title>The titlepage for the Standard Ebooks edition of Nightmare Abbey, by Thomas Love Peacock</title>
	<g>
		<path d="m 220.27704,82.093566 0.18713,0 L 251.15423,130 l 17.59065,0 0,-77.192984 -17.59065,0 0,47.906434 -0.18713,0 -30.69006,-47.906434 -17.59064,0 0,77.192984 17.59064,0 0,-47.906434 z"/>
		<path d="m 302.57967,52.807016 -17.59064,0 0,77.192984 17.59064,0 0,-77.192984 z"/>
		<path d="m 388.66447,86.771929 -35.64912,0 0,13.567251 17.77777,0 c 0,9.45029 -8.32748,14.87719 -16.74853,14.87719 -10.85381,0 -19.64913,-10.66666 -19.64913,-23.766078 0,-13.380117 8.79532,-24.140352 19.64913,-24.140352 6.8304,0 12.72514,2.713451 17.21637,9.918129 L 382.76973,64.59649 c -6.73684,-8.140351 -16.18713,-13.192983 -29.75438,-13.192983 -21.70761,0 -37.61404,17.871346 -37.61404,40.046785 0,22.081868 16.84211,39.953218 37.61404,39.953218 15.15789,0 31.43859,-8.32749 35.64912,-27.88304 l 0,-16.748541 z"/>
		<path d="m 418.93933,99.029239 24.88889,0 0,30.970761 17.59064,0 0,-77.192984 -17.59064,0 0,30.783626 -24.88889,0 0,-30.783626 -17.59064,0 0,77.192984 17.59064,0 0,-30.970761 z"/>
		<path d="m 468.18641,68.245613 18.33918,0 0,61.754387 17.59064,0 0,-61.754387 18.33918,0 0,-15.438597 -54.269,0 0,15.438597 z"/>
		<path d="m 597.60308,130 17.59065,0 -6.92398,-77.192984 -18.71345,0 -17.12281,44.538013 -17.12281,-44.538013 -18.71345,0 L 529.67326,130 l 17.59064,0 3.64912,-45.754387 0.46784,0 15.81287,45.286547 10.47953,0 15.81286,-45.286547 0.46784,0 L 597.60308,130 Z"/>
		<path d="m 666.44518,52.807016 -16.2807,0 L 619.00658,130 l 18.90059,0 5.7076,-15.4386 29.38012,0 5.7076,15.4386 18.90059,0 -31.1579,-77.192984 z m 0.56141,46.31579 -17.40351,0 8.60818,-22.45614 0.18714,0 8.60819,22.45614 z"/>
		<path d="m 705.52267,52.807016 0,77.192984 17.59064,0 0,-30.502925 L 746.69226,130 l 22.36257,0 -26.5731,-31.906433 c 9.4503,-2.994152 15.81287,-10.760234 15.81287,-22.362574 0,-15.157895 -10.8538,-22.923977 -25.16959,-22.923977 l -27.60234,0 z m 17.59064,34.245615 0,-20.210527 2.05848,0 c 6.64328,0 14.59649,0.467836 14.59649,10.105263 0,9.637428 -7.95321,10.105264 -14.59649,10.105264 l -2.05848,0 z"/>
		<path d="m 821.75511,52.807016 -44.16375,0 0,77.192984 44.16375,0 0,-15.4386 -26.5731,0 0,-15.532161 25.45029,0 0,-15.438597 -25.45029,0 0,-15.345029 26.5731,0 0,-15.438597 z"/>
		<path d="m 906.65719,52.807016 -16.2807,0 L 859.21859,130 l 18.90059,0 5.7076,-15.4386 29.38012,0 5.7076,15.4386 18.90058,0 -31.15789,-77.192984 z m 0.5614,46.31579 -17.40351,0 8.60819,-22.45614 0.18713,0 8.60819,22.45614 z"/>
		<path d="m 945.73467,52.807016 0,77.192984 29.28655,0 c 16,0 25.26318,-8.79532 25.26318,-21.52047 0,-12.444443 -6.83043,-17.777776 -16.46785,-19.461987 6.5497,-3.368421 9.63742,-9.450292 9.63742,-16.561404 0,-14.690058 -10.47953,-19.649123 -23.76608,-19.649123 l -23.95322,0 z m 17.59065,30.222223 0,-16.654971 1.40351,0 c 7.67251,0 11.6959,2.339181 11.6959,7.859649 0,6.456141 -4.11696,8.795322 -11.6959,8.795322 l -1.40351,0 z m 0,33.403511 0,-18.245616 5.52047,0 c 8.32748,0 12.91228,2.526316 12.91228,9.637426 0,6.08187 -4.5848,8.60819 -12.91228,8.60819 l -5.52047,0 z"/>
		<path d="m 1013.0519,52.807016 0,77.192984 29.2866,0 c 16,0 25.2631,-8.79532 25.2631,-21.52047 0,-12.444443 -6.8304,-17.777776 -16.4678,-19.461987 6.5497,-3.368421 9.6374,-9.450292 9.6374,-16.561404 0,-14.690058 -10.4795,-19.649123 -23.766,-19.649123 l -23.9533,0 z m 17.5907,30.222223 0,-16.654971 1.4035,0 c 7.6725,0 11.6959,2.339181 11.6959,7.859649 0,6.456141 -4.117,8.795322 -11.6959,8.795322 l -1.4035,0 z m 0,33.403511 0,-18.245616 5.5204,0 c 8.3275,0 12.9123,2.526316 12.9123,9.637426 0,6.08187 -4.5848,8.60819 -12.9123,8.60819 l -5.5204,0 z"/>
		<path d="m 1124.5329,52.807016 -44.1638,0 0,77.192984 44.1638,0 0,-15.4386 -26.5731,0 0,-15.532161 25.4503,0 0,-15.438597 -25.4503,0 0,-15.345029 26.5731,0 0,-15.438597 z"/>
		<path d="m 1131.2244,52.807016 28.4445,42.5731 0,34.619884 17.5906,0 0,-34.619884 28.4445,-42.5731 -21.1462,0 -16.0936,24.701755 -16.0936,-24.701755 -21.1462,0 z"/>
	</g>
	<g>
		<path d="m 195.51481,243.68421 13.75438,0 0,46.31579 13.19299,0 0,-46.31579 13.75438,0 0,-11.57895 -40.70175,0 0,11.57895 z"/>
		<path d="m 259.16064,266.77193 18.66666,0 0,23.22807 13.19299,0 0,-57.89474 -13.19299,0 0,23.08772 -18.66666,0 0,-23.08772 -13.19298,0 0,57.89474 13.19298,0 0,-23.22807 z"/>
		<path d="m 301.82511,261.01754 c 0,16.91228 12.07018,30.03509 29.19299,30.03509 16.63157,0 29.1228,-13.12281 29.1228,-30.03509 0,-16.91228 -13.05263,-29.96491 -29.1228,-29.96491 -15.92983,0 -29.19299,13.05263 -29.19299,29.96491 z m 14.24562,0 c 0,-8.63157 4.77193,-17.26315 14.94737,-17.26315 10.24561,0 14.87719,8.63158 14.87719,17.26315 0,8.63158 -4.35088,17.26316 -14.87719,17.26316 -10.80702,0 -14.94737,-8.63158 -14.94737,-17.26316 z"/>
		<path d="m 418.82183,290 13.19298,0 -5.19298,-57.89474 -14.03509,0 -12.84211,33.40351 -12.8421,-33.40351 -14.03509,0 -5.19298,57.89474 13.19298,0 2.73684,-34.31579 0.35088,0 11.85965,33.96491 7.85965,0 11.85965,-33.96491 0.35087,0 L 418.82183,290 Z"/>
		<path d="m 471.70339,232.10526 -12.21052,0 L 436.12445,290 l 14.17544,0 4.2807,-11.57895 22.03508,0 4.28071,11.57895 14.17543,0 -23.36842,-57.89474 z m 0.42106,34.73685 -13.05263,0 6.45614,-16.84211 0.14035,0 6.45614,16.84211 z"/>
		<path d="m 522.22422,231.05263 c -9.33333,0 -18.87719,6.8772 -18.87719,17.68421 0,6.03509 4.07017,11.4386 11.01754,14.8772 6.8772,3.43859 13.05263,5.33333 13.05263,9.54385 0,5.40351 -5.47368,5.68422 -8.35087,5.68422 -6.45614,0 -14.17544,-6.52632 -14.17544,-6.52632 l -6.59649,11.08772 c 0,0 8.21052,7.64912 21.75438,7.64912 11.29825,0 21.82456,-4.8421 21.82456,-18.66666 0,-7.57895 -7.08771,-13.05264 -13.54385,-15.78948 -6.5965,-2.80702 -12.07018,-5.12281 -12.07018,-8.35088 0,-3.15789 2.38596,-5.19298 6.87719,-5.19298 5.96492,0 11.7193,4 11.7193,4 l 5.33333,-10.52631 c 0,0 -7.43859,-5.47369 -17.96491,-5.47369 z"/>
		<path d="m 590.42161,232.10526 -13.19298,0 0,57.89474 33.1228,0 0,-11.57895 -19.92982,0 0,-46.31579 z"/>
		<path d="m 619.24285,261.01754 c 0,16.91228 12.07018,30.03509 29.19299,30.03509 16.63157,0 29.1228,-13.12281 29.1228,-30.03509 0,-16.91228 -13.05263,-29.96491 -29.1228,-29.96491 -15.92983,0 -29.19299,13.05263 -29.19299,29.96491 z m 14.24562,0 c 0,-8.63157 4.77193,-17.26315 14.94737,-17.26315 10.24561,0 14.87719,8.63158 14.87719,17.26315 0,8.63158 -4.35088,17.26316 -14.87719,17.26316 -10.80702,0 -14.94737,-8.63158 -14.94737,-17.26316 z"/>
		<path d="m 704.2922,290 10.38597,0 24.2807,-57.89474 -14.87719,0 -14.59649,38.03509 -14.5965,-38.03509 -14.87719,0 L 704.2922,290 Z"/>
		<path d="m 779.27136,232.10526 -33.12281,0 0,57.89474 33.12281,0 0,-11.57895 -19.92983,0 0,-11.64912 19.08772,0 0,-11.57895 -19.08772,0 0,-11.50877 19.92983,0 0,-11.57895 z"/>
		<path d="m 816.04442,232.10526 0,57.89474 13.19299,0 0,-21.47368 7.92982,0 c 11.29825,0 19.78947,-6.66667 19.78947,-18.5965 0,-11.99999 -8.49122,-17.82456 -19.78947,-17.82456 l -21.12281,0 z M 829.23741,258 l 0,-15.36842 3.71929,0 c 5.19299,0 10.10527,1.75439 10.10527,7.7193 0,5.89473 -4.91228,7.64912 -10.10527,7.64912 l -3.71929,0 z"/>
		<path d="m 900.90514,232.10526 -33.1228,0 0,57.89474 33.1228,0 0,-11.57895 -19.92982,0 0,-11.64912 19.08772,0 0,-11.57895 -19.08772,0 0,-11.50877 19.92982,0 0,-11.57895 z"/>
		<path d="m 943.30425,232.10526 -12.21052,0 L 907.72531,290 l 14.17544,0 4.2807,-11.57895 22.03509,0 4.2807,11.57895 14.17544,0 -23.36843,-57.89474 z m 0.42106,34.73685 -13.05263,0 6.45614,-16.84211 0.14035,0 6.45614,16.84211 z"/>
		<path d="m 1002.4764,278.07018 c -13.26312,0 -19.08768,-9.26316 -19.08768,-17.05264 0,-7.71929 5.82456,-16.98245 19.08768,-16.98245 6.7369,0 11.3685,3.57895 11.3685,3.57895 l 5.614,-11.22807 c 0,0 -6.4561,-5.33334 -19.0175,-5.33334 -16.4211,0 -31.36847,13.47369 -31.36847,30.10527 0,16.5614 15.01755,29.89473 31.36847,29.89473 12.5614,0 19.0175,-5.33333 19.0175,-5.33333 l -5.614,-11.22807 c 0,0 -4.6316,3.57895 -11.3685,3.57895 z"/>
		<path d="m 1026.9786,261.01754 c 0,16.91228 12.0702,30.03509 29.193,30.03509 16.6316,0 29.1228,-13.12281 29.1228,-30.03509 0,-16.91228 -13.0526,-29.96491 -29.1228,-29.96491 -15.9298,0 -29.193,13.05263 -29.193,29.96491 z m 14.2456,0 c 0,-8.63157 4.772,-17.26315 14.9474,-17.26315 10.2456,0 14.8772,8.63158 14.8772,17.26315 0,8.63158 -4.3509,17.26316 -14.8772,17.26316 -10.807,0 -14.9474,-8.63158 -14.9474,-17.26316 z"/>
		<path d="m 1126.9227,278.07018 c -13.2632,0 -19.0878,-9.26316 -19.0878,-17.05264 0,-7.71929 5.8246,-16.98245 19.0878,-16.98245 6.7368,0 11.3684,3.57895 11.3684,3.57895 l 5.614,-11.22807 c 0,0 -6.4561,-5.33334 -19.0175,-5.33334 -16.4211,0 -31.3684,13.47369 -31.3684,30.10527 0,16.5614 15.0175,29.89473 31.3684,29.89473 12.5614,0 19.0175,-5.33333 19.0175,-5.33333 l -5.614,-11.22807 c 0,0 -4.6316,3.57895 -11.3684,3.57895 z"/>
		<path d="m 1206.7231,290 -26.9474,-30.45614 23.2983,-27.4386 -16,0 -19.8597,23.64913 0,-23.64913 -13.1929,0 0,57.89474 13.1929,0 0,-24.5614 21.3334,24.5614 18.1754,0 z"/>
	</g>
</svg>

<?xml version="1.0" encoding="utf-8"?>
<svg xmlns="http://www.w3.org/2000/svg" xmlns:svg="http://www.w3.org/2000/svg" version="1.1" viewBox="0 0 1400 340">
	<title>The titlepage for the Standard Ebooks edition of Nightmare Abbey, by Thomas Love Peacock</title>
	<g aria-label="NIGHTMARE ABBEY">
		<path d="m 220.27704,82.093566 h 0.18713 L 251.15423,130 h 17.59065 V 52.807016 H 251.15423 V 100.71345 H 250.9671 L 220.27704,52.807016 H 202.6864 V 130 h 17.59064 z"/>
		<path d="M 302.57967,52.807016 H 284.98903 V 130 h 17.59064 z"/>
		<path d="m 388.66447,86.771929 h -35.64912 v 13.567251 h 17.77777 c 0,9.45029 -8.32748,14.87719 -16.74853,14.87719 -10.85381,0 -19.64913,-10.66666 -19.64913,-23.766078 0,-13.380117 8.79532,-24.140352 19.64913,-24.140352 6.8304,0 12.72514,2.713451 17.21637,9.918129 L 382.76973,64.59649 c -6.73684,-8.140351 -16.18713,-13.192983 -29.75438,-13.192983 -21.70761,0 -37.61404,17.871346 -37.61404,40.046785 0,22.081868 16.84211,39.953218 37.61404,39.953218 15.15789,0 31.43859,-8.32749 35.64912,-27.88304 z"/>
		<path d="m 418.93933,99.029239 h 24.88889 V 130 h 17.59064 V 52.807016 H 443.82822 V 83.590642 H 418.93933 V 52.807016 H 401.34869 V 130 h 17.59064 z"/>
		<path d="m 468.18641,68.245613 h 18.33918 V 130 h 17.59064 V 68.245613 h 18.33918 V 52.807016 h -54.269 z"/>
		<path d="m 597.60308,130 h 17.59065 L 608.26975,52.807016 H 589.5563 L 572.43349,97.345029 555.31068,52.807016 H 536.59723 L 529.67326,130 h 17.59064 l 3.64912,-45.754387 h 0.46784 l 15.81287,45.286547 h 10.47953 l 15.81286,-45.286547 h 0.46784 z"/>
		<path d="m 666.44518,52.807016 h -16.2807 L 619.00658,130 h 18.90059 l 5.7076,-15.4386 h 29.38012 L 678.70249,130 h 18.90059 z m 0.56141,46.31579 h -17.40351 l 8.60818,-22.45614 h 0.18714 z"/>
		<path d="M 705.52267,52.807016 V 130 h 17.59064 V 99.497075 L 746.69226,130 h 22.36257 l -26.5731,-31.906433 c 9.4503,-2.994152 15.81287,-10.760234 15.81287,-22.362574 0,-15.157895 -10.8538,-22.923977 -25.16959,-22.923977 z m 17.59064,34.245615 V 66.842104 h 2.05848 c 6.64328,0 14.59649,0.467836 14.59649,10.105263 0,9.637428 -7.95321,10.105264 -14.59649,10.105264 z"/>
		<path d="M 821.75511,52.807016 H 777.59136 V 130 h 44.16375 v -15.4386 h -26.5731 V 99.029239 H 820.6323 V 83.590642 H 795.18201 V 68.245613 h 26.5731 z"/>
		<path d="m 906.65719,52.807016 h -16.2807 L 859.21859,130 h 18.90059 l 5.7076,-15.4386 H 913.2069 L 918.9145,130 h 18.90058 z m 0.5614,46.31579 h -17.40351 l 8.60819,-22.45614 h 0.18713 z"/>
		<path d="M 945.73467,52.807016 V 130 h 29.28655 c 16,0 25.26318,-8.79532 25.26318,-21.52047 0,-12.444443 -6.83043,-17.777776 -16.46785,-19.461987 6.5497,-3.368421 9.63742,-9.450292 9.63742,-16.561404 0,-14.690058 -10.47953,-19.649123 -23.76608,-19.649123 z m 17.59065,30.222223 V 66.374268 h 1.40351 c 7.67251,0 11.6959,2.339181 11.6959,7.859649 0,6.456141 -4.11696,8.795322 -11.6959,8.795322 z m 0,33.403511 V 98.187134 h 5.52047 c 8.32748,0 12.91228,2.526316 12.91228,9.637426 0,6.08187 -4.5848,8.60819 -12.91228,8.60819 z"/>
		<path d="M 1013.0519,52.807016 V 130 h 29.2866 c 16,0 25.2631,-8.79532 25.2631,-21.52047 0,-12.444443 -6.8304,-17.777776 -16.4678,-19.461987 6.5497,-3.368421 9.6374,-9.450292 9.6374,-16.561404 0,-14.690058 -10.4795,-19.649123 -23.766,-19.649123 z m 17.5907,30.222223 V 66.374268 h 1.4035 c 7.6725,0 11.6959,2.339181 11.6959,7.859649 0,6.456141 -4.117,8.795322 -11.6959,8.795322 z m 0,33.403511 V 98.187134 h 5.5204 c 8.3275,0 12.9123,2.526316 12.9123,9.637426 0,6.08187 -4.5848,8.60819 -12.9123,8.60819 z"/>
		<path d="m 1124.5329,52.807016 h -44.1638 V 130 h 44.1638 v -15.4386 h -26.5731 V 99.029239 h 25.4503 V 83.590642 h -25.4503 V 68.245613 h 26.5731 z"/>
		<path d="m 1131.2244,52.807016 28.4445,42.5731 V 130 h 17.5906 V 95.380116 l 28.4445,-42.5731 h -21.1462 l -16.0936,24.701755 -16.0936,-24.701755 z"/>
	</g>
	<g aria-label="THOMAS LOVE PEACOCK">
		<path d="m 195.51481,243.68421 h 13.75438 V 290 h 13.19299 v -46.31579 h 13.75438 v -11.57895 h -40.70175 z"/>
		<path d="M 259.16064,266.77193 H 277.8273 V 290 h 13.19299 V 232.10526 H 277.8273 v 23.08772 H 259.16064 V 232.10526 H 245.96766 V 290 h 13.19298 z"/>
		<path d="m 301.82511,261.01754 c 0,16.91228 12.07018,30.03509 29.19299,30.03509 16.63157,0 29.1228,-13.12281 29.1228,-30.03509 0,-16.91228 -13.05263,-29.96491 -29.1228,-29.96491 -15.92983,0 -29.19299,13.05263 -29.19299,29.96491 z m 14.24562,0 c 0,-8.63157 4.77193,-17.26315 14.94737,-17.26315 10.24561,0 14.87719,8.63158 14.87719,17.26315 0,8.63158 -4.35088,17.26316 -14.87719,17.26316 -10.80702,0 -14.94737,-8.63158 -14.94737,-17.26316 z"/>
		<path d="m 418.82183,290 h 13.19298 l -5.19298,-57.89474 h -14.03509 l -12.84211,33.40351 -12.8421,-33.40351 H 373.06744 L 367.87446,290 h 13.19298 l 2.73684,-34.31579 h 0.35088 l 11.85965,33.96491 h 7.85965 l 11.85965,-33.96491 h 0.35087 z"/>
		<path d="M 471.70339,232.10526 H 459.49287 L 436.12445,290 h 14.17544 l 4.2807,-11.57895 h 22.03508 L 480.89638,290 h 14.17543 z m 0.42106,34.73685 H 459.07182 L 465.52796,250 h 0.14035 z"/>
		<path d="m 522.22422,231.05263 c -9.33333,0 -18.87719,6.8772 -18.87719,17.68421 0,6.03509 4.07017,11.4386 11.01754,14.8772 6.8772,3.43859 13.05263,5.33333 13.05263,9.54385 0,5.40351 -5.47368,5.68422 -8.35087,5.68422 -6.45614,0 -14.17544,-6.52632 -14.17544,-6.52632 l -6.59649,11.08772 c 0,0 8.21052,7.64912 21.75438,7.64912 11.29825,0 21.82456,-4.8421 21.82456,-18.66666 0,-7.57895 -7.08771,-13.05264 -13.54385,-15.78948 -6.5965,-2.80702 -12.07018,-5.12281 -12.07018,-8.35088 0,-3.15789 2.38596,-5.19298 6.87719,-5.19298 5.96492,0 11.7193,4 11.7193,4 l 5.33333,-10.52631 c 0,0 -7.43859,-5.47369 -17.96491,-5.47369 z"/>
		<path d="M 590.42161,232.10526 H 577.22863 V 290 h 33.1228 v -11.57895 h -19.92982 z"/>
		<path d="m 619.24285,261.01754 c 0,16.91228 12.07018,30.03509 29.19299,30.03509 16.63157,0 29.1228,-13.12281 29.1228,-30.03509 0,-16.91228 -13.05263,-29.96491 -29.1228,-29.96491 -15.92983,0 -29.19299,13.05263 -29.19299,29.96491 z m 14.24562,0 c 0,-8.63157 4.77193,-17.26315 14.94737,-17.26315 10.24561,0 14.87719,8.63158 14.87719,17.26315 0,8.63158 -4.35088,17.26316 -14.87719,17.26316 -10.80702,0 -14.94737,-8.63158 -14.94737,-17.26316 z"/>
		<path d="m 704.2922,290 h 10.38597 l 24.2807,-57.89474 h -14.87719 l -14.59649,38.03509 -14.5965,-38.03509 H 680.0115 Z"/>
		<path d="M 779.27136,232.10526 H 746.14855 V 290 h 33.12281 v -11.57895 h -19.92983 v -11.64912 h 19.08772 v -11.57895 h -19.08772 v -11.50877 h 19.92983 z"/>
		<path d="M 816.04442,232.10526 V 290 h 13.19299 v -21.47368 h 7.92982 c 11.29825,0 19.78947,-6.66667 19.78947,-18.5965 0,-11.99999 -8.49122,-17.82456 -19.78947,-17.82456 z M 829.23741,258 v -15.36842 h 3.71929 c 5.19299,0 10.10527,1.75439 10.10527,7.7193 0,5.89473 -4.91228,7.64912 -10.10527,7.64912 z"/>
		<path d="m 900.90514,232.10526 h -33.1228 V 290 h 33.1228 v -11.57895 h -19.92982 v -11.64912 h 19.08772 v -11.57895 h -19.08772 v -11.50877 h 19.92982 z"/>
		<path d="M 943.30425,232.10526 H 931.09373 L 907.72531,290 h 14.17544 l 4.2807,-11.57895 h 22.03509 L 952.49724,290 h 14.17544 z m 0.42106,34.73685 H 930.67268 L 937.12882,250 h 0.14035 z"/>
		<path d="m 1002.4764,278.07018 c -13.26312,0 -19.08768,-9.26316 -19.08768,-17.05264 0,-7.71929 5.82456,-16.98245 19.08768,-16.98245 6.7369,0 11.3685,3.57895 11.3685,3.57895 l 5.614,-11.22807 c 0,0 -6.4561,-5.33334 -19.0175,-5.33334 -16.4211,0 -31.36847,13.47369 -31.36847,30.10527 0,16.5614 15.01755,29.89473 31.36847,29.89473 12.5614,0 19.0175,-5.33333 19.0175,-5.33333 l -5.614,-11.22807 c 0,0 -4.6316,3.57895 -11.3685,3.57895 z"/>
		<path d="m 1026.9786,261.01754 c 0,16.91228 12.0702,30.03509 29.193,30.03509 16.6316,0 29.1228,-13.12281 29.1228,-30.03509 0,-16.91228 -13.0526,-29.96491 -29.1228,-29.96491 -15.9298,0 -29.193,13.05263 -29.193,29.96491 z m 14.2456,0 c 0,-8.63157 4.772,-17.26315 14.9474,-17.26315 10.2456,0 14.8772,8.63158 14.8772,17.26315 0,8.63158 -4.3509,17.26316 -14.8772,17.26316 -10.807,0 -14.9474,-8.63158 -14.9474,-17.26316 z"/>
		<path d="m 1126.9227,278.07018 c -13.2632,0 -19.0878,-9.26316 -19.0878,-17.05264 0,-7.71929 5.8246,-16.98245 19.0878,-16.98245 6.7368,0 11.3684,3.57895 11.3684,3.57895 l 5.614,-11.22807 c 0,0 -6.4561,-5.33334 -19.0175,-5.33334 -16.4211,0 -31.3684,13.47369 -31.3684,30.10527 0,16.5614 15.0175,29.89473 31.3684,29.89473 12.5614,0 19.0175,-5.33333 19.0175,-5.33333 l -5.614,-11.22807 c 0,0 -4.6316,3.57895 -11.3684,3.57895 z"/>
		<path d="m 1206.7231,290 -26.9474,-30.45614 23.2983,-27.4386 h -16 l -19.8597,23.64913 v -23.64913 h -13.1929 V 290 h 13.1929 V 265.4386 L 1188.5477,290 Z"/>
	</g>
</svg>
